X:7826
T:Norrbottens brudmarsch
C:anon.
O:Sweden
A:Norrbotten
N:After N. A. \"Oberg
R:G\aangl\aat, brudmarsch, bridal march
Z:Transcribed by Frank Nordberg - http://www.musicaviva.com
F:http://abc.musicaviva.com/tunes/sweden/norrbottens-brudmarsch.abc
M:2/4
L:1/8
K:G
Bd|"G"g2g>g|"C"gg fe|"G"d3B|"G"G2 D/G/B/e/|
"D7"d>F FF|"D7"F2 D/F/A/d/|"G"GG/G/ GG|"G"G>G Bd|
"G"g2 g>g|"C"cc fe|"G"d3G|"G"G2 D/G/B/d/|
"D7"d2 D/F/A/e/|"D7"d2 D/F/A/d/|"G"BG/G/ GG|[1"G"GG:|[2"G"G2 c>d||
"C"e2 e>c|"C"Gc/e/ gf/e/|"G"d3B|"G"G2 e>d|
"D7"cA ag|"D7"fe d^c|"G"d3B|"G"GG/G/ GG|
"C"e2 e>c|"C"Gc/e/ gf/e/|"G"d3B|"G"G2 e>d|
"D7"cA ag|"D7"fd ef|"G"[B2g2] [B3/2g3/2][B/g/]|[1[B2g2] c>d:|[2"_D. C. al fine"[B2g2] "^Fine"z2|]
W:
W:
W:  From Musica Viva - http://www.musicaviva.com
W:  the Internet center for free sheet music downloads.
